X:1
T:Cadenza
T:Cadenza 
T:ivan barchuk
C:ivan barchuk
L:1/8
Q:1/4=70
M:4/4
K:G
V:1 treble nm="Piano" snm="Pno."
V:1
 !fermata![DBg]2 z{a} (g/f/) .g.g.g.g | (g/4a/4b3/2) z{a} (g/f/) .[dg].[cg].[Bg].[Ag] | %2
 (g/4a/4b3/2) (e/4f/4g3/2) (c/4d/4e3/2) !fermata!T^c2{!fermata!B!fermata!c} | %3
 (^c/d/)c/d/ D/F/A/d/ (c/d/)c/d/ f/d/A/F/ | [=F^c]/d/c/d/ D/F/A/d/ c/d/c/d/ =f/d/A/F/ | %5
 [_B,=Fd]2 (d2 d/)e/=f/e/{g} (fe/d/) | ([A,=Fd]c) (c2 c)d/4c/4B/4c/4 dA | %7
 !fermata![G,=FB]/E/D/E/ F/G/A/B/ c/d/e/=f/ g/f/e/d/ | ([CG^d]e) (e/d/e/f/) (g/f/g/f/) (a/g/)f/e/ | %9
 (e/f/)g/g/ (c/d/)e/e/ (A/B/)c/c/ (a/b/)c'/c'/ | (a/g/f/g/ f/g/b/g/) (e/d/^c/d/ c/d/g/d/) | %11
 (c/B/^A/B/ A/B/d/B/) (=A/G/F/G/) (E/D/^C/D/) | (DB,)(GD) (BG)(dB) | (gd)(bg){d} (d'b){d}(d'b) | %14
({Dd)} d'2 d'4 (c'/b/a/g/) | !trill(!T[da]4 !trill)![ga]4 | !fermata![fa]6 g2 | [G,DBg]2 z2 z4 |] %18

